icons-dark/places/22/user-trash-full.svg

<svg version="1.1" viewBox="0 0 22 22" xmlns="http://www.w3.org/2000/svg">
    <style type="text/css" id="current-color-scheme">
        .ColorScheme-Text {
            color:#eff0f1;
        }
    </style>
    <path d="m8 3v2h-4v1h1v13h12v-13h1v-1h-4v-2zm1 1h4v1h-4zm-1 5h1v6h-1zm5 0h1v6h-1z" class="ColorScheme-Text" fill="currentColor"/>
</svg>

<svg xmlns="http://www.w3.org/2000/svg" viewBox="0 0 22 22">
  <defs id="defs3051">
    <style type="text/css" id="current-color-scheme">
      .ColorScheme-Text {
        color:#eff0f1;
      }
      .ColorScheme-NegativeText {
        color:#da4453;
      }
      </style>
  </defs>
  <path
     style="fill:currentColor;fill-opacity:1;stroke:none" 
     class="ColorScheme-NegativeText"
   d="M 8 3 L 8 5 L 4 5 L 4 6 L 5 6 L 5 19 L 6 19 L 17 19 L 17 18 L 17 6 L 18 6 L 18 5 L 14 5 L 14 3 L 8 3 z M 9 4 L 13 4 L 13 5 L 9 5 L 9 4 z M 6 6 L 8 6 L 9 6 L 13 6 L 14 6 L 16 6 L 16 18 L 6 18 L 6 6 z M 8 9 L 8 15 L 9 15 L 9 9 L 8 9 z M 13 9 L 13 15 L 14 15 L 14 9 L 13 9 z "
      />
</svg>
